X:1
T:Winterreise, D.911
T:Gefror'ne Thränen
T:Wilhelm Müller
T:Franz Schubert
T:Winterreise, D.911
T:3. Gefror'ne Thränen
T:OpenScore (CC0)
T:OpenScore (CC0)
T:OpenScore (CC0)
C:Franz Schubert
Z:Wilhelm Müller
Z:OpenScore (CC0)
%%score 1 { ( 2 4 ) | 3 }
L:1/8
Q:1/4=90
M:2/2
K:Ab
V:1 treble nm="Singstimme\nVoice"
V:2 treble nm="Pianoforte"
V:4 treble 
V:3 bass 
V:1
"^Nicht zu langsam" z2 | z8 | z8 | z8 | z8 | z8 | z8 | z4 z2 c2 | c2 BA A2 G2 | A4 F2 Gd | %10
w: |||||||Ge-|fror'- ne _ Trop- fen|fal- len von _|
 c2 BA A2 G2 | A4 z4 | d2 d d d2 d2 | (d2 cB) B2 B2 | c2 BA c2 B2 | A4 z2 e2 | fe dc e2 d2 | %17
w: mei- nen * Wan- gen|ab:|ob es mir denn ent-|gan- * * gen, dass|ich ge- * wei- net|hab'? dass|ich _ ge- * wei- net|
 c4 z4 | z8 | z8 | z4 z2 D2 |{D} C2 C2 z2 D D |{D} C2 C2 z2 F2 | =E3 E A3 A | G4 C2 =D D | %25
w: hab'?|||Ei|Thrä- nen, mei- ne|Thrä- nen, und|seid ihr gar so|lau, dass ihr er-|
 _E4 z2 _F2 |{/_F} E2 E2 z2 A2 | G3 G _c3 c | B4 z4 | z4 z2 =c2 | d2 cB B2 =B2 | (c3 A) Ac ce | %32
w: starrt zu|Ei- se, wie|küh- ler Mor- gen-|thau?|Und|dringt doch _ aus der|Quel- * le _ der _|
{e} d2 cB B2 =B2 | c4 z2 e2 |{e} =A3 A A3 A | (B3 _c) B2 B2 | _c2 cd e2 dc | B6 f2 | fc df A2 G2 | %39
w: Brust so _ glü- hend|heiss, als|woll- tet ihr zer-|schmel- * zen des|gan- zen _ Win- ters _|Eis, des|gan- * zen _ Win- ters|
 c6 c2 | d2 cB B2 =B2 | (c3 A) Ac ce |{e} d2 cB B2 =B2 | c4 z2 e2 |{e} =A3 A A2 A2 | %45
w: Eis, ihr|dringt doch _ aus der|Quel- * le _ der _|Brust so _ glü- hend|heiss, als|woll- tet ihr zer-|
 (B3 _c) B2 B2 | _c2 cd e2 dc | B6"^stark" f2 | f2 fg =e3 e | f4 z4 | z8 | z8 | z8 | z8 | z8 | %55
w: schmel- * zen des|gan- zen _ Win- ters _|Eis, des|gan- zen _ Win- ters|Eis.||||||
 z8 |] %56
w: |
V:2
 .[C=EG]2 | .[CFA]2 !>!c4 .[C=EG]2 | .[CFA]2 z2 z2 .[C=EG]2 | .[CFA]2 !>!c4 [FA]2 | %4
"_dim." ([FAd]2 [F=Ad]2 [FBd]2 [_FBd]2) | !>![EBd]2 [EAc][EGB] !>![EAc]2 [DEB][CEA] | %6
 .D2 .C.B, .B,2 .=B,2 | [=E,G,C]6!pp! .[C=EG]2 | .[CFA]2 !>!c4 .[C=EG]2 | .[CFA]2 z2 z2 .[C=EG]2 | %10
 .[CFA]2 !>!c4 .[C=EG]2 | .[CFA]2 z2 .A2 (d2 |!>(!"_dim." [FAd]2) [F=Ad]2!>)! [FBd]2 [_FBd]2 | %13
 [EBd]2 [EAc][EGB] [EGB]2 E2 | [Ec]2 [EFB][CEA] [CEA]2 [Ed]2 | [Ec]2 [EFB][CEA] [CEA]2 [Ed]2 | %16
 [Ec]2 [EFB][CEA] [CEA]2 [B,EG]2 | .[CEA]2 .[B,D].[A,C] .[CE]2 .[G,B,D]2 | %18
 .[A,C]2 [B,D][A,C] !>![CE]2 .[G,B,D]2 | .[A,C]2 .A,.G, .B,2 .A,2 | %20
[K:bass] .G,2 .F,.=E, .F,2 .D,2 |!pp! .C,2 .[C,C]2 z2 .[D,D]2 | z2 .[C,C]2 z2 [F,=B,F]2 | %23
[K:treble] z2 [G,C=E]2 z2 [A,=DF]2 | z2 [G,C=E]2 (C2 =D2 | _E) z [E,E]2 z2 [_F,_F]2 | %26
 z2 [E,E]2 z2 [A,=DA]2 | z2 [B,EG]2 z2 !>![_CFA]2 | z2 [B,EG]2 z2 [EGB]2 | %29
 z2 [EA_c]2!<(! z2!<)! [E=A=c]2 | !>![EBd]2 [E_Ac][EGB] [EGB]2 E2 | !>![Ec]2 [DEB][CEA] [CEA]2 E2 | %32
 !>![EBd]2 [EAc][EGB] [EGB]2 E2 | c2 [EB][EA] [EA]2 e2 | %34
 [CE_G=A]2 [CEGA][CEGA]"_cresc." [CEGA]2 [CEGA]2 | [D_GB]2 [DGB][DA_c] [DGB]2 [DGB]2 | %36
 [FA_c]2 [FAc]!<(![FBd]!<)!!>(! [Fce]2!>)! [FBd][FAc] | [D_GB]2 [DGB][DFB] [DGB]2!mf! [=B,FA]2 | %38
 [CFA]2 [DFA][DFB] [CFA]2 [C=EG]2 | [C_E_G]2!>(! [EGc][EGc] [Gce]2!>)!!p! [EGc]2 | %40
 !>![E=Gd]2 [EAc][EGB] [EGB]2 E2 | [Ec]2 [EFB][CEA] [CEA]2 E2 | !>![EBd]2 [EAc][EGB] [EGB]2 E2 | %43
 c2 [EB][EA] [EA]2 e2 |!>(! [CE_G=A]2 [CEGA]!>)![CEGA]"_cresc." [CEGA]2 [CEGA]2 | %45
 [D_GB]2 [DGB][DA_c] [DGB]2 [DGB]2 | %46
!<(! [FA_c]2 [FAc]!<(![FBd]!<)!!<)!!>(!!>(! [Fce]2!>)! [FBd][FAc]!>)! | %47
 [D_GB]2 [DGB][DFB] [DGB]2 [=B,FA]2 | [CFA]2 [DFA][DGB] [C=EG]2 [CEG]2 | [CFA]2 !>!c4 .[=C=EG]2 | %50
 .[CFA]2 z2 z2!p! .[C=EG]2 | .[CFA]2 !>!c4 [FA]2 |"_dim." (.[FAd]2 .[F=Ad]2 .[FBd]2 .[_FBd]2) | %53
 !>![EBd]2 .[EAc].[EGB] !>![EAc]2 .[DEB].[CEA] |!pp! !>!D2 .C.B, .C2 .[G,C=E]2 | [A,CF]4 z4 |] %56
V:3
 .C,2 | .F,2 z2 z2 .C,2 | .F,2 !>!C4 .C,2 | .F,2 z2 .A,2 D2- | (D2 C2 B,2 A,2) | .G,2 !>!E,4 .A,2 | %6
 .D,2 .C,.B,, .B,,2 .=B,,2 | [C,,C,]6 .C,2 | .F,2 z2 z2 .C,2 | .F,2 !>!C4 .C,2 | .F,2 z2 z2 .C,2 | %11
 .F,2 !>!C4 .F,2 | D2 C2 B,2 _A,2 | .G,2 !>!E,4 .G,2 | .A,2 !>!E,4 .G,2 | .A,2 !>!E,4 .G,2 | %16
 .A,2 !>!E,4 E,,2 | .A,,2 !>!E,4 .[E,,E,]2 | .[A,,E,]2 !>!E,4 .[E,,E,]2 | %19
 .[A,,E,]2 .A,,.G,, .B,,2 .A,,2 | .G,,2 .F,,.=E,, .F,,2 .D,,2 | .C,,2 z2 .D,,2 z2 | %22
 .C,,2 z2 [D,,D,]2 z2 | [C,,C,]2 z2 !>![=B,,,=B,,]2 z2 | [C,,C,]2 z2 (C,2 =D,2 | %25
 _E,) z z2 _F,,2 z2 | E,,2 z2 [_F,,_F,]2 z2 | [E,,E,]2 z2 !>![=D,,=D,]2 z2 | [E,,E,]2 z2 E,2 z2 | %29
 E,2 z2 E,2 z2 | G,2 !>!D,4 (G,2 | A,2) !>!E,4 (A,2 | G,2) !>!E,4 (G,2 | A,2) !>!E,4 (C,E,) | %34
 !>!_G,2 .F,.E, E,2 .D,.C, | .D,2 !>!D,,4 .D,2 | .D,2 !>!D,,4 .D,2 | .D,2 !>!D,,4 .D,2 | %38
 C,2 B,,B,, C,2 C,2 | =A,,2 =A,4 (A,2 | B,2) !>!E,4 (G,2 | A,2) !>!E,4 (A,2 | G,2) !>!E,4 (G,2 | %43
 A,2) !>!E,4 (C,E,) | _G,2 .F,.E, E,2 .D,.C, | .D,2 !>!D,,4 .D,2 | .D,2 !>!D,,4 .D,2 | %47
 .D,2 !>!D,,4!f! .D,2 | C,2 B,,B,, C,2 [C,,C,]2 | [F,,F,]2 z2 z2 .[C,,C,]2 | .[F,,F,]2 !>!C4 .C,2 | %51
 .F,2 z2 A,2 !>!D2- | D2 (.C2 .B,2 .A,2) | .G,2 !>!E,4 .A,2 | !>!D,2 .C,.B,, .C,2 .[C,,C,]2 | %55
 [F,,C,]4 z4 |] %56
V:4
 x2 | x8 | x8 | x8 | x8 | x8 | x8 | x8 | x8 | x8 | x8 | x8 | x8 | x8 | x8 | x8 | x8 | x8 | x8 | %19
 x8 |[K:bass] x8 | x8 | x8 |[K:treble] x8 | x8 | x8 | x8 | x8 | x8 | x8 | x8 | x8 | x8 | %33
 FEDC C2 E2 | x8 | x8 | x8 | x8 | x8 | x8 | x8 | x8 | x8 | FEDC C2 E2 | x8 | x8 | x8 | x8 | x8 | %49
 x8 | x8 | x8 | x8 | x8 | x8 | x8 |] %56

